X: 74
T:Irish Jig
M:6/8
L:1/8
Q:120
S:PLayford
K:Em
EF|G2 A BGE|BGE BGE| F2 G AFD |AFD AFD|G3 A3| Bee efg| dec BcA| GEE E2:|
|: A| B3 BcA |BGE EFG| A3 ABG|AFD DEF| G3 A3|Bee efg |dec BcA| GEE E2:|

